packages/brickdoc-design-icons/assets/basic/pin.svg

<svg width="1em" height="1em" viewBox="0 0 24 24" fill="none" xmlns="http://www.w3.org/2000/svg">
<path fill-rule="evenodd" clip-rule="evenodd" d="M17.9301 13.0203C17.4192 12.3677 17.1426 11.5701 17.1429 10.75V4.5H18.4286C19.1357 4.5 19.7143 3.9375 19.7143 3.25C19.7143 2.5625 19.1357 2 18.4286 2H5.57143C4.86429 2 4.28571 2.5625 4.28571 3.25C4.28571 3.9375 4.86429 4.5 5.57143 4.5H6.85714V10.75C6.85714 12.475 5.66143 13.925 4.02857 14.3625C3.43714 14.525 3 15 3 15.5875V15.75C3 16.4375 3.57857 17 4.28571 17H11V21H10C9.44772 21 9 21.4477 9 22C9 22.5523 9.44772 23 10 23H14C14.5523 23 15 22.5523 15 22C15 21.4477 14.5523 21 14 21H13V17H19.7143C20.4214 17 21 16.4375 21 15.75V15.5875C21 15 20.5629 14.525 19.9714 14.3625C19.1582 14.1444 18.4411 13.6729 17.9301 13.0203ZM8.85714 4H15.1429V10.7494C15.1426 12.0216 15.5721 13.2528 16.3554 14.2533C16.5673 14.5238 16.8017 14.7734 17.0552 15H6.94295C8.11177 13.9571 8.85714 12.4511 8.85714 10.75V4Z" fill="currentColor"/>
</svg>

<svg width="1em" height="1em" viewBox="0 0 24 24" fill="none" xmlns="http://www.w3.org/2000/svg"><path fill-rule="evenodd" clip-rule="evenodd" d="M17.93 13.02a3.68 3.68 0 0 1-.787-2.27V4.5h1.286c.707 0 1.285-.563 1.285-1.25 0-.688-.578-1.25-1.285-1.25H5.57c-.707 0-1.285.563-1.285 1.25 0 .688.578 1.25 1.285 1.25h1.286v6.25c0 1.725-1.196 3.175-2.828 3.613C3.437 14.525 3 15 3 15.588v.162c0 .688.579 1.25 1.286 1.25H11v4h-1a1 1 0 1 0 0 2h4a1 1 0 1 0 0-2h-1v-4h6.714c.707 0 1.286-.563 1.286-1.25v-.162c0-.588-.437-1.063-1.029-1.225a3.86 3.86 0 0 1-2.04-1.343ZM8.857 4h6.286v6.75a5.68 5.68 0 0 0 1.212 3.503c.212.27.447.52.7.747H6.943a5.67 5.67 0 0 0 1.914-4.25V4Z" fill="currentColor"/></svg>
